X:1
T:Kowloon, 86.86.86 D
T:Kowloon, 86.86.86 D
T:Edward Handley (1842–1904)
T:Public Domain Courtesy of the Cyber Hymnal™
C:Edward Handley (1842–1904)
Z:Public Domain
Z:Courtesy of the Cyber Hymnal™
%%score ( 1 2 ) ( 3 4 )
L:1/8
Q:1/4=105
M:4/4
K:Bb
V:1 treble 
V:2 treble 
V:3 bass 
V:4 bass 
V:1
 D2 | [DG]2 [DG]2 [DG]2 [DB]2 | [DA]2 (G^F) [DG]2 [DG]2 | [D^F]2 [^C=E]2 D2 [CG]2 | [D^F]6 [DF]2 | %5
 [DG]2 [DG]2 [FA]2 [^Fc]2 | [GB]2 [DA]2 [DG]2 [DG]2 | D2 [^C=E]2 [=C^F]2 [CF]2 | %8
 [B,G]6[Q:1/4=108] G2 | [Dd]3 [^Fc] [G=B]2 [DA]2 | [DG]3 [G=B] [^FA]2 [DA]2 | %11
 [G=B]2 [GB]2 [G^c]2 [Gc]2 | [^Fd]6 [Gd]2 | [G=e]3 [Gd] [Gc]2 [=E=B]2 | %14
 [^FA]3 [=E=B] [E^c]2 [Ec]2 | [Dd]2 [=Bd]2 =e3 z ^f | [^Fd]6 [Fd]2 | [^Fc]3 [G=B] [DA]2 [DG]2 | %18
 [DA]3 [D=B] [DA]2 [GB]2 | [G=e]2 [Gd]2 c2 z x3 | [=Ec]6 [^FA]2 | [G=B]2 c2 d3 z =e | %22
 [^Fd]3 [Fc] [G=B]2 [Gc]2 | =E2 [CE]2 [D^F]3 [DA] x | [DG]6 |] %25
V:2
 D2 | x8 | x2 D2 x4 | x4 D2 x2 | x8 | x8 | x8 | D2 x6 | x6 G2 | x8 | x8 | x8 | x8 | x8 | x8 | %15
 x4 A2 G2 x | x8 | x8 | x8 | x4 G3 =B2 ^F | x8 | x2 (^F=E) D2 G2 x | x8 | =E2 x7 | x6 |] %25
V:3
 [D,D]2 | [G,B,]2 [G,B,]2 [G,B,]2 [G,D]2 | [D,C]2 (B,A,) [G,B,]2 [G,B,]2 | %3
 A,2 [A,,G,]2 [D,F,]2 [A,,A,]2 | [D,A,]6 [D,C]2 | [G,B,]2 [G,B,]2 [F,C]2 [D,D]2 | %6
 [G,D]2 [^F,C]2 [G,B,]2 [G,B,]2 | [D,A,]2 [D,A,]2 [D,A,]2 [D,A,]2 | [G,,G,]6 G,2 | %9
 [G,=B,]3 [G,A,] G,2 [^F,A,]2 | [G,=B,]2 [G,D]2 [D,D]2 [^F,A,]2 | G,2 [=E,=B,]2 A,2 [A,,A,]2 | %12
 [D,A,]6 [G,=B,]2 | [C,C]3 [C,=B,] [C,A,]2 [^C,G,]2 | [D,^F,]3 [=E,^G,] [A,,A,]2 A,2 | %15
 [G,=B,]2 [=E,B,]2 [A,^C]2 [A,,C]2 x | [D,D]6 [D,D]2 | [D,A,]3 [D,G,] [D,^F,]2 [=B,,G,]2 | %18
 [D,^F,]3 [D,G,] [D,F,]2 [G,,G,]2 | [C,G,]2 [=B,,G,]2 [A,,G,]2 [G,,G,]2 x2 | [C,G,]6 [D,D]2 | %21
 [G,D]2 [A,D]2 [=B,D]2 C2 x | [A,D]3 [A,D] [G,D]2 [=E,C]2 | [C,C]2 [C,A,]2 A,3 z C | [G,=B,]6 |] %25
V:4
 x2 | x8 | x2 D,2 x4 | A,2 x6 | x8 | x8 | x8 | x8 | x6 G,2 | x4 G,2 x2 | x8 | G,2 A,2 x4 | x8 | %13
 x8 | x6 A,2 | x9 | x8 | x8 | x8 | x10 | x8 | x6 C2 x | x8 | x4 D,2 D,2 x | x6 |] %25

